X:1
T:Short Jacket (Cabin Boy)
M:4/4
L:1/8
K:G
 D2| G2 G2 G2 A2| d4 c2A-B|c-A G2A-G F2| D6 DD| G2(3A3.99999962500005/5.99999925000009A3.99999962500005/5.99999925000009G3.99999962500005/5.99999925000009A3.99999962500005/5.99999925000009G3.99999962500005/5.99999925000009F3.99999962500005/5.99999925000009 G2 A2|\
 d4 c2A-B|c-G G2A-G F2| G6d-e| =f2 e2 d4| G4 c2d-e| d6 c2| c2 c2 G2A-G|\
 D6 D2| G2(3A3.99999962500005/5.99999925000009A3.99999962500005/5.99999925000009G3.99999962500005/5.99999925000009A3.99999962500005/5.99999925000009G3.99999962500005/5.99999925000009F3.99999962500005/5.99999925000009 G2 A2|\
 d4 c2A-B| c2 GGA-G F2| G6||
